svgs/light/tooth.svg

<svg xmlns="http://www.w3.org/2000/svg" viewBox="0 0 448 512"><!--! Font Awesome Pro 6.3.0 by @fontawesome - https://fontawesome.com License - https://fontawesome.com/license (Commercial License) Copyright 2023 Fonticons, Inc. --><path d="M392.9 225.3c-14.31 19.97-22.47 45.16-25.62 79.28c-2.875 31.81-7.374 73.81-16.72 116.1l-6.187 27.66C340.3 466.9 324.3 480 305.5 480c-18.62 0-34.56-12.84-38.75-31.22l-27.09-112.3c-1.875-7.656-8.312-13.03-15.65-13.03c-7.343 0-13.78 5.375-15.69 13.09l-27.09 112.5C176.9 467.2 160.9 480 142.5 480c-18.87 0-34.87-13.09-38.9-31.81L97.39 420.7c-9.343-42.28-13.84-84.28-16.72-116.1c-3.062-33.97-11.22-59.16-25.62-79.25c-21.09-29.59-28.03-66.06-19.5-102.7c10.03-42.53 42.87-77.06 83.74-87.1C145.5 27.73 173.3 34.92 201.7 56.07l.6874 .5c9.187 6.937 48.09 32.69 62.37 42.06c7.405 4.844 9.437 14.78 4.593 22.16c-4.875 7.406-14.9 9.406-22.15 4.594c-1.937-1.281-65.49-44.5-65.49-44.5C162.6 66.57 144.4 61.1 127.5 65.54C97.96 73.45 74.05 98.73 66.71 129.9C60.3 157.4 65.4 184.7 81.08 206.7c17.84 24.87 27.84 55.06 31.47 94.97c2.781 30.91 7.124 71.56 16.09 112l6.187 27.59c1.719 7.937 13.37 8.031 15.25 .2187l27.12-112.6c5.406-22.12 24.65-37.53 46.78-37.53s41.37 15.41 46.75 37.47l27.15 112.6c1.781 7.937 13.53 7.719 15.25-.0313l6.187-27.75c8.968-40.44 13.31-81.09 16.09-111.1c3.718-40.06 13.75-70.25 31.5-94.1c15.72-21.97 20.81-49.25 14.34-76.81c-7.437-31.19-31.34-56.47-60.93-64.34c-12.53-3.437-25.84-1.156-40.65 6.937c-7.749 4.187-17.47 1.344-21.72-6.406c-4.218-7.781-1.344-17.47 6.406-21.72c22.09-12.03 43.68-15.28 64.27-9.719c40.71 10.87 73.62 45.37 83.74 87.87C421 159.2 414.1 195.7 392.9 225.3z"/></svg>

<svg xmlns="http://www.w3.org/2000/svg" viewBox="0 0 448 512"><!-- Font Awesome Pro 6.0.0-alpha2 by @fontawesome - https://fontawesome.com License - https://fontawesome.com/license (Commercial License) --><path d="M392.895 225.318C378.584 245.286 370.429 270.473 367.273 304.597C364.398 336.409 359.898 378.408 350.556 420.657L344.369 448.313C340.338 466.907 324.34 480 305.467 480C286.843 480 270.908 467.157 266.72 448.782L239.629 336.44C237.755 328.784 231.318 323.409 223.975 323.409C216.632 323.409 210.195 328.784 208.289 336.503L181.198 448.969C176.855 467.219 160.95 480 142.483 480C123.61 480 107.612 466.907 103.581 448.188L97.394 420.689C88.051 378.408 83.552 336.409 80.677 304.566C77.615 270.598 69.459 245.411 55.055 225.318C33.963 195.725 27.026 159.257 35.556 122.601C45.587 80.071 78.427 45.54 119.298 34.603C145.483 27.728 173.324 34.915 201.727 56.071L202.415 56.571C211.601 63.509 250.503 89.258 264.783 98.633C272.189 103.477 274.22 113.414 269.376 120.789C264.502 128.195 254.472 130.195 247.222 125.382C245.285 124.101 181.729 80.883 181.729 80.883C162.575 66.571 144.389 61.102 127.516 65.54C97.956 73.446 74.053 98.727 66.71 129.882C60.304 157.444 65.397 184.725 81.083 206.724C98.925 231.599 108.924 261.786 112.549 301.691C115.33 332.597 119.673 373.252 128.641 413.72L134.828 441.313C136.546 449.251 148.201 449.344 150.076 441.532L177.198 328.941C182.604 306.816 201.852 291.41 223.975 291.41S265.346 306.816 270.72 328.878L297.874 441.47C299.655 449.407 311.403 449.188 313.122 441.438L319.309 413.689C328.277 373.252 332.62 332.597 335.401 301.691C339.119 261.63 349.15 231.443 366.898 206.693C382.615 184.725 387.708 157.444 381.24 129.882C373.803 98.695 349.9 73.415 320.309 65.54C307.779 62.102 294.468 64.384 279.657 72.477C271.907 76.665 262.19 73.821 257.94 66.071C253.722 58.29 256.596 48.603 264.346 44.353C286.437 32.322 308.029 29.072 328.62 34.634C369.335 45.509 402.238 80.008 412.362 122.507C421.017 159.225 414.112 195.725 392.895 225.318Z"/></svg>
